Sources/FrostedUI/Resources/Icons.xcassets/pin16.imageset/pin-16.svg

<svg width="16" height="16" viewBox="0 0 16 16" fill="none" xmlns="http://www.w3.org/2000/svg" data-fui-icon="true">
  <path
    d="M9.95068 1C11.0825 1.00034 12.0004 1.91792 12.0005 3.0498V6.0791C12.0006 6.22299 12.0387 6.36473 12.1108 6.48926L13.52 8.92285C14.3109 10.2894 13.3244 11.9997 11.7456 12H8.75049V14.25C8.75049 14.6641 8.41449 14.9997 8.00049 15C7.58627 15 7.25049 14.6642 7.25049 14.25V12H4.25537C2.67621 12 1.6898 10.2895 2.48096 8.92285L3.89014 6.48926C3.96216 6.36478 4.00041 6.22292 4.00049 6.0791V3.0498C4.00059 1.91778 4.91826 1.00011 6.05029 1H9.95068ZM6.05029 2.5C5.74669 2.50011 5.50059 2.7462 5.50049 3.0498V6.0791C5.50041 6.48683 5.39224 6.88735 5.18799 7.24023L3.77881 9.6748C3.56704 10.0414 3.83188 10.5 4.25537 10.5H11.7456C12.1688 10.4997 12.4337 10.0412 12.2222 9.6748L10.813 7.24023C10.6087 6.88731 10.5006 6.4869 10.5005 6.0791V3.0498C10.5004 2.74635 10.2541 2.50034 9.95068 2.5H6.05029Z"
    fill="currentColor"
  />
</svg>

<svg xmlns="http://www.w3.org/2000/svg" width="16" height="16" fill="none" data-fui-icon="true" viewBox="0 0 16 16"><path fill="currentColor" d="M9.95 1A2.05 2.05 0 0 1 12 3.05v3.03a.8.8 0 0 0 .11.41l1.41 2.433c.79 1.366-.196 3.077-1.774 3.077H8.75v2.25a.75.75 0 0 1-1.5 0V12H4.255c-1.579 0-2.565-1.71-1.774-3.077l1.41-2.434A.8.8 0 0 0 4 6.08V3.05A2.05 2.05 0 0 1 6.05 1zm-3.9 1.5a.55.55 0 0 0-.55.55v3.03c0 .407-.108.807-.312 1.16l-1.41 2.435a.55.55 0 0 0 .477.825h7.49a.55.55 0 0 0 .477-.825L10.813 7.24a2.3 2.3 0 0 1-.312-1.16V3.05a.55.55 0 0 0-.55-.55z"/></svg>
